ui/StatusQ/src/assets/img/icons/bold.svg

<svg fill="none" height="20" viewBox="0 0 20 20" width="20" xmlns="http://www.w3.org/2000/svg"><path clip-rule="evenodd" d="m7.95973 2.90003h.03796.00305.00305.00306.00306.00306.00306.00307.00307.00308.00308.00308.00308.00309.00309.00309.0031.0031.0031.0031.00311.00311.00312.00312.00312.00312.00313.00313.00314.00313.00314.00315.00314.00315.00315.00316.00316.00316.00317.00317.00317.00317.00318.00318.00319.00318.00319.0032.0032.0032.0032.00321.00321.00321.00321.00322.00323.00322.00323.00323.00324.00324.00324.00324.00325.00325.00326.00326.00326.00326.00327.00327.00327.00328.00328.00328.00329.00329.00329.0033.0033.0033.00331.00331.00331.00331.00332.00332.00333.00333.00333.00333.00334.00334.00335.00335.00335.00335.00336.00336.00337.00336.00337.00338.00338.00338.00338.00339.00339.00339.0034.0034.0034.00341.00341.00341.00342.00342.00342.00343.00343.00343.00344.00344.00344.00345.00345.00345.00346.00345.00347.00346.00347.00348.00347.00348.00348.00349.00349.00349.0035.0035.0035.0035.00351.00352.00351.00352.00352.00353.00353.00353.00354.00354.00354.00354.00355.00356.00355.00356.00356.00357.00357.00357.00358.00358.00358.00359.00358.0036.00359.0036.00361.0036.00361.00362.00361.00362.00362.00363.00363.00363.00364.00364.00364.00365.00365.00366.00365.00366.00367.00366.00367.00368.00368.00368.00368.00369.00369.00369.0037.0037.00371.00371.00371.00371.00372.00372.00373.00373.00373.00374.00373.00375.00374.00375.00375.00376.00376.00376.00377.00377.00377.00378.00378.00378.00379.00379.0038.00379.0038.00381.00381.00381.00381.00382.00382.00383.00383.00383.00384.00384.00384.00384.00385.00386.00385.00386.00387.00386.00388.00387.00388.00388.00388.00389.00389.0039.0039.0039.0039.00391.00392.00391.00392.00392.00393.00393.00394.00393.00394.00395.00395.00395.00395.00396.00396.00397.00397.00397.00398.00398.00398.00399.00399.00399.004.004.004.00401.00401.00402.00402.00402.00402.00403.00404.00403.00404.00405.00404.00406.00405.00406.00406.00406.00407.00408.00407.00408.00408.00409.00409.00409.0041.0041.00411.00411.00411.00411.00412.00412.00413.00413.00413.00414.00414.00415.00414.00416.00415.00416.00416.00417.00417.00417.00418.00418.00418.00419.00419.0042.0042.0042.0042.00421.00422.00421.00422.00423.00423.00423.00423.00424.00424.00425.00425.00425.00426.00426.00427.00426.00428.00427.00428.00428.00429.00429.00429.0043.0043.00431.00431.00431.00431.00432.00433.00432.00434.00433.00434.00434.00435.00434.00436.00435.00436.00437.00437.00437.00437.00438.00438.00439.00439.00439.0044.0044.00441.00441.00441.00442.00442.00442.00443.00443.00443.00444.00444.00445.00445.00445.00446.00446.00447.00446.00448.00447.00448.00449.00448.00449.0045.0045.0045.00451.00451.00451.00452.00452.00452.00453.00453.00454.00454.00455.00454.00455.00456.00456.00456.00457.00457.00457.00458.00458.00459.00459.00459.0046.0046.0046.00461.00461.00462.00462.00462.00463.00463.00464.00464.00464.00465.00465.00465.00466.00466.00467.00467.00467.00468.00468.00469.00468.0047.00469.0047.00471.00471.00471.00471.00472.00473.00472.00474.00473.00474.00474.00475.00475.00476.00475.00477.00476.00477.00478.00477.00479.00478.00479.00479.0048.0048.00481.00481.00481.00481.00483.00482.00483.00483.00484.00484c2.09799 0 3.32399.57043 3.98269 1.46232.6183.83728.6177 1.82049.6173 2.35229v.03539.03539c.0004.5318.001 1.51501-.6173 2.35228-.1802.24394-.4028.46383-.674.65458.7126.24902 1.2277.60662 1.5903 1.04312.702.8449.7013 1.8458.701 2.3814v.0332.0333c.0003.5356.001 1.5365-.701 2.3814-.7287.8771-2.0727 1.4353-4.399 1.4353h-.0062-.0063-.0062-.0063-.0062-.0062-.0062-.0062-.0062-.0062-.0062-.0062-.0062-.0062-.0061-.0062-.0062-.0061-.0062-.0061-.0061-.0062-.0061-.0061-.0061-.0061-.0061-.0061-.0061-.0061-.0061-.0061-.006-.0061-.006-.0061-.006-.0061-.006-.006-.006-.0061-.006-.006-.006-.006-.006-.0059-.006-.006-.0059-.006-.006-.0059-.0059-.006-.0059-.0059-.006-.0059-.0059-.0059-.0059-.0059-.0059-.0058-.0059-.0059-.0058-.0059-.0058-.0059-.0058-.0059-.0058-.0058-.0058-.0059-.0058-.0058-.0058-.0057-.0058-.00581-.00577-.00577-.00576-.00576-.00575-.00575-.00574-.00573-.00573-.00572-.00572-.00571-.00571-.0057-.0057-.00569-.00568-.00568-.00568-.00566-.00567-.00565-.00566-.00564-.00564-.00564-.00563-.00562-.00562-.00561-.00561-.0056-.0056-.00559-.00559-.00558-.00557-.00557-.00556-.00556-.00556-.00554-.00555-.00553-.00553-.00553-.00552-.00551-.00551-.00551-.0055-.00549-.00549-.00548-.00548-.00547-.00546-.00546-.00546-.00545-.00544-.00544-.00544-.00542-.00543-.00541-.00542-.0054-.0054-.0054-.00539-.00538-.00538-.00538-.00537-.00536-.00536-.00535-.00535-.00534-.00534-.00533-.00533-.00532-.00531-.00531-.00531-.0053-.00529-.00529-.00528-.00528-.00527-.00527-.00526-.00526-.00525-.00525-.00524-.00523-.00523-.00523-.00522-.00521-.00521-.0052-.0052-.0052-.00518-.00519-.00517-.00518-.00516-.00516-.00516-.00515-.00515-.00514-.00513-.00513-.00513-.00512-.00511-.00511-.00511-.00509-.0051-.00509-.00508-.00508-.00507-.00507-.00506-.00505-.00506-.00504-.00504-.00504-.00503-.00503-.00502-.00501-.00501-.00501-.005-.00499-.00499-.00499-.00497-.00498-.00497-.00496-.00496-.00495-.00495-.00494-.00494-.00493-.00493-.00492-.00492-.00491-.00491-.0049-.0049-.00489-.00489-.00488-.00487-.00487-.00487-.00486-.00486-.00485-.00484-.00484-.00484-.00483-.00482-.00482-.00482-.00481-.0048-.0048-.0048-.00479-.00478-.00478-.00478-.00476-.00477-.00476-.00475-.00475-.00475-.00473-.00474-.00473-.00472-.00472-.00471-.00471-.00471-.0047-.00469-.00469-.00468-.00468-.00467-.00467-.00467-.00465-.00466-.00465-.00464-.00464-.00463-.00463-.00463-.00461-.00462-.00461-.0046-.0046-.00459-.00459-.00459-.00458-.00457-.00457-.00456-.00456-.00456-.00454-.00455-.00454-.00453-.00453-.00453-.00452-.00451-.00451-.00451-.0045-.00449-.00449-.00449-.00448-.00447-.00447-.00447-.00446-.00446-.00445-.00444-.00444-.00444-.00443-.00443-.00442-.00442-.00441-.00441-.0044-.0044-.00439-.00439-.00438-.00438-.00437-.00437-.00436-.00436-.00435-.00435-.00435-.00434-.00433-.00433-.00433-.00432-.00431-.00431-.00431-.0043-.00429-.0043-.00428-.00428-.00428-.00427-.00427-.00426-.00426-.00425-.00425-.00424-.00424-.00424-.00422-.00423-.00422-.00421-.00421-.00421-.0042-.00419-.0042-.00418-.00418-.00418-.00417-.00417-.00416-.00416-.00415-.00415-.00415-.00413-.00414-.00413-.00412-.00412-.00412-.00411-.00411-.0041-.00409-.0041-.00408-.00409-.00407-.00408-.00406-.00407-.00406-.00405-.00405-.00405-.00404-.00403-.00404-.00402-.00402-.00402-.00401-.00401-.00401-.00399-.004-.00399-.00398-.00398-.00398-.00397-.00397-.00396-.00396-.00395-.00395-.00394-.00394-.00393-.00393-.00393-.00392-.00391-.00391-.00391-.0039-.0039-.00389-.00389-.00389-.00388-.00387-.00387-.00387-.00386-.00385-.00385-.00385-.00384-.00384-.00384-.00383-.00382-.00382-.00382-.00381-.0038-.00381-.00379-.0038-.00379-.00378-.00378-.00377-.00377-.00377-.00376-.00376-.00375-.00375-.00374-.00374-.00374-.00373-.00372-.00372-.00372-.00371-.00371-.0037-.0037-.0037-.00369-.00368-.00368-.00368-.00367-.00367-.00366-.00366-.00366-.00365-.00364-.00364-.03797c-.43801.0001-.82528.0001-1.13754-.0419-.33866-.0456-.67707-.1503-.95342-.4267-.27651-.2765-.38111-.6153-.42667-.9542-.04203-.3126-.042-.7004-.04197-1.1392l.00001-.038v-3.9-.6-.59997-3.9l-.00001-.03795c-.00003-.43884-.00006-.82666.04197-1.13927.04556-.33885.15016-.67764.42667-.95415.27636-.27637.61481-.38106.95349-.42666.31229-.04204.69961-.04201 1.1377-.04197zm2.04027 1.39997h-2.00222c-.4933 0-.7827.0017-.98887.02946-.08268.01113-.1268.02362-.14786.03149-.00789.02111-.02041.06539-.03157.14838-.02778.20661-.02948.49665-.02948.99067v3.7h3.2c1.8693 0 2.568-.50331 2.8565-.89398.3236-.43825.3435-.98897.3435-1.55602s-.0199-1.11777-.3435-1.55602c-.2885-.39067-.9872-.89398-2.8565-.89398zm-3.13107.04457c.00013.00033-.00104.00286-.00387.00661.00233-.00505.00375-.00693.00387-.00661zm-.01761.02038c-.00376.00285-.0063.00402-.00663.00389s.00155-.00155.00663-.00389zm3.64868 6.43505h-3.7v3.7c0 .494.0017.7841.02948.9907.01116.083.02368.1272.03157.1484.02105.0078.06516.0203.14782.0314.20612.0278.49546.0295.98869.0295h2.50244c2.1482 0 2.9812-.5196 3.3221-.93.3569-.4295.3779-.9582.3779-1.52s-.021-1.0905-.3779-1.52c-.3409-.4104-1.1739-.93-3.3221-.93zm-3.6553 4.8312c.00033-.0002.00287.001.00664.0039-.00508-.0024-.00697-.0038-.00664-.0039zm.02036.0176c.00283.0038.004.0063.00387.0066-.00012.0004-.00154-.0015-.00387-.0066z" fill="#09101c" fill-rule="evenodd"/></svg>

<svg width="20" height="20" viewBox="0 0 20 20" fill="none" xmlns="http://www.w3.org/2000/svg">
<path fill-rule="evenodd" clip-rule="evenodd" d="M7.95973 2.90003L7.99769 2.90003H8.00074H8.00379H8.00685H8.00991H8.01297H8.01603H8.0191H8.02217H8.02525H8.02833H8.03141H8.03449H8.03758H8.04067H8.04376H8.04686H8.04996H8.05306H8.05616H8.05927H8.06238H8.0655H8.06862H8.07174H8.07486H8.07799H8.08112H8.08426H8.08739H8.09053H8.09368H8.09682H8.09997H8.10312H8.10628H8.10944H8.1126H8.11577H8.11894H8.12211H8.12528H8.12846H8.13164H8.13483H8.13801H8.1412H8.1444H8.1476H8.1508H8.154H8.15721H8.16042H8.16363H8.16684H8.17006H8.17329H8.17651H8.17974H8.18297H8.18621H8.18945H8.19269H8.19593H8.19918H8.20243H8.20569H8.20895H8.21221H8.21547H8.21874H8.22201H8.22528H8.22856H8.23184H8.23512H8.23841H8.2417H8.24499H8.24829H8.25159H8.25489H8.2582H8.26151H8.26482H8.26813H8.27145H8.27477H8.2781H8.28143H8.28476H8.28809H8.29143H8.29477H8.29812H8.30147H8.30482H8.30817H8.31153H8.31489H8.31826H8.32162H8.32499H8.32837H8.33175H8.33513H8.33851H8.3419H8.34529H8.34868H8.35208H8.35548H8.35888H8.36229H8.3657H8.36911H8.37253H8.37595H8.37937H8.3828H8.38623H8.38966H8.3931H8.39654H8.39998H8.40343H8.40688H8.41033H8.41379H8.41724H8.42071H8.42417H8.42764H8.43112H8.43459H8.43807H8.44155H8.44504H8.44853H8.45202H8.45552H8.45902H8.46252H8.46602H8.46953H8.47305H8.47656H8.48008H8.4836H8.48713H8.49066H8.49419H8.49773H8.50127H8.50481H8.50835H8.5119H8.51546H8.51901H8.52257H8.52613H8.5297H8.53327H8.53684H8.54042H8.544H8.54758H8.55117H8.55475H8.55835H8.56194H8.56554H8.56915H8.57275H8.57636H8.57998H8.58359H8.58721H8.59083H8.59446H8.59809H8.60172H8.60536H8.609H8.61264H8.61629H8.61994H8.6236H8.62725H8.63091H8.63458H8.63824H8.64191H8.64559H8.64927H8.65295H8.65663H8.66032H8.66401H8.6677H8.6714H8.6751H8.67881H8.68252H8.68623H8.68994H8.69366H8.69738H8.70111H8.70484H8.70857H8.71231H8.71604H8.71979H8.72353H8.72728H8.73103H8.73479H8.73855H8.74231H8.74608H8.74985H8.75362H8.7574H8.76118H8.76496H8.76875H8.77254H8.77634H8.78013H8.78393H8.78774H8.79155H8.79536H8.79917H8.80299H8.80681H8.81064H8.81447H8.8183H8.82214H8.82598H8.82982H8.83366H8.83751H8.84137H8.84522H8.84908H8.85295H8.85681H8.86069H8.86456H8.86844H8.87232H8.8762H8.88009H8.88398H8.88788H8.89178H8.89568H8.89958H8.90349H8.90741H8.91132H8.91524H8.91916H8.92309H8.92702H8.93096H8.93489H8.93883H8.94278H8.94673H8.95068H8.95463H8.95859H8.96255H8.96652H8.97049H8.97446H8.97844H8.98242H8.9864H8.99039H8.99438H8.99837H9.00237H9.00637H9.01037H9.01438H9.01839H9.02241H9.02643H9.03045H9.03447H9.0385H9.04254H9.04657H9.05061H9.05466H9.0587H9.06276H9.06681H9.07087H9.07493H9.07899H9.08306H9.08714H9.09121H9.09529H9.09937H9.10346H9.10755H9.11164H9.11574H9.11984H9.12395H9.12806H9.13217H9.13628H9.1404H9.14452H9.14865H9.15278H9.15691H9.16105H9.16519H9.16934H9.17348H9.17764H9.18179H9.18595H9.19011H9.19428H9.19845H9.20262H9.2068H9.21098H9.21516H9.21935H9.22354H9.22774H9.23194H9.23614H9.24034H9.24455H9.24877H9.25298H9.2572H9.26143H9.26566H9.26989H9.27412H9.27836H9.2826H9.28685H9.2911H9.29535H9.29961H9.30387H9.30814H9.3124H9.31668H9.32095H9.32523H9.32951H9.3338H9.33809H9.34238H9.34668H9.35098H9.35529H9.3596H9.36391H9.36822H9.37254H9.37687H9.38119H9.38553H9.38986H9.3942H9.39854H9.40289H9.40723H9.41159H9.41594H9.4203H9.42467H9.42904H9.43341H9.43778H9.44216H9.44654H9.45093H9.45532H9.45971H9.46411H9.46851H9.47292H9.47733H9.48174H9.48616H9.49058H9.495H9.49943H9.50386H9.50829H9.51273H9.51717H9.52162H9.52607H9.53052H9.53498H9.53944H9.54391H9.54837H9.55285H9.55732H9.5618H9.56629H9.57077H9.57526H9.57976H9.58426H9.58876H9.59327H9.59778H9.60229H9.60681H9.61133H9.61585H9.62038H9.62491H9.62945H9.63399H9.63854H9.64308H9.64763H9.65219H9.65675H9.66131H9.66588H9.67045H9.67502H9.6796H9.68418H9.68877H9.69336H9.69795H9.70255H9.70715H9.71175H9.71636H9.72097H9.72559H9.73021H9.73483H9.73946H9.74409H9.74873H9.75337H9.75801H9.76266H9.76731H9.77196H9.77662H9.78128H9.78595H9.79062H9.79529H9.79997H9.80465H9.80934H9.81402H9.81872H9.82341H9.82811H9.83282H9.83753H9.84224H9.84695H9.85167H9.8564H9.86112H9.86586H9.87059H9.87533H9.88007H9.88482H9.88957H9.89433H9.89908H9.90385H9.90861H9.91338H9.91816H9.92293H9.92772H9.9325H9.93729H9.94208H9.94688H9.95168H9.95649H9.9613H9.96611H9.97092H9.97575H9.98057H9.9854H9.99023H9.99507H9.99991C12.0979 2.90003 13.3239 3.47046 13.9826 4.36235C14.6009 5.19963 14.6003 6.18284 14.5999 6.71464L14.5999 6.75003L14.5999 6.78542C14.6003 7.31722 14.6009 8.30043 13.9826 9.1377C13.8024 9.38164 13.5798 9.60153 13.3086 9.79228C14.0212 10.0413 14.5363 10.3989 14.8989 10.8354C15.6009 11.6803 15.6002 12.6812 15.5999 13.2168L15.5999 13.25L15.5999 13.2833C15.6002 13.8189 15.6009 14.8198 14.8989 15.6647C14.1702 16.5418 12.8262 17.1 10.4999 17.1H10.4937H10.4874H10.4812H10.4749H10.4687H10.4625H10.4563H10.4501H10.4439H10.4377H10.4315H10.4253H10.4191H10.4129H10.4068H10.4006H10.3944H10.3883H10.3821H10.376H10.3699H10.3637H10.3576H10.3515H10.3454H10.3393H10.3332H10.3271H10.321H10.3149H10.3088H10.3027H10.2967H10.2906H10.2846H10.2785H10.2725H10.2664H10.2604H10.2544H10.2484H10.2423H10.2363H10.2303H10.2243H10.2183H10.2123H10.2064H10.2004H10.1944H10.1885H10.1825H10.1765H10.1706H10.1647H10.1587H10.1528H10.1469H10.1409H10.135H10.1291H10.1232H10.1173H10.1114H10.1055H10.0997H10.0938H10.0879H10.0821H10.0762H10.0704H10.0645H10.0587H10.0528H10.047H10.0412H10.0354H10.0295H10.0237H10.0179H10.0121H10.0064H10.0006H9.99479H9.98902H9.98325H9.97749H9.97173H9.96598H9.96023H9.95449H9.94876H9.94303H9.93731H9.93159H9.92588H9.92017H9.91447H9.90877H9.90308H9.8974H9.89172H9.88604H9.88038H9.87471H9.86906H9.8634H9.85776H9.85212H9.84648H9.84085H9.83523H9.82961H9.824H9.81839H9.81279H9.80719H9.8016H9.79601H9.79043H9.78486H9.77929H9.77373H9.76817H9.76261H9.75707H9.75152H9.74599H9.74046H9.73493H9.72941H9.7239H9.71839H9.71288H9.70738H9.70189H9.6964H9.69092H9.68544H9.67997H9.67451H9.66905H9.66359H9.65814H9.6527H9.64726H9.64182H9.6364H9.63097H9.62556H9.62014H9.61474H9.60934H9.60394H9.59855H9.59317H9.58779H9.58241H9.57704H9.57168H9.56632H9.56097H9.55562H9.55028H9.54494H9.53961H9.53428H9.52896H9.52365H9.51834H9.51303H9.50773H9.50244H9.49715H9.49187H9.48659H9.48132H9.47605H9.47079H9.46553H9.46028H9.45503H9.44979H9.44456H9.43933H9.4341H9.42888H9.42367H9.41846H9.41326H9.40806H9.40286H9.39768H9.39249H9.38732H9.38214H9.37698H9.37182H9.36666H9.36151H9.35636H9.35122H9.34609H9.34096H9.33583H9.33071H9.3256H9.32049H9.31538H9.31029H9.30519H9.3001H9.29502H9.28994H9.28487H9.2798H9.27474H9.26969H9.26463H9.25959H9.25455H9.24951H9.24448H9.23945H9.23443H9.22942H9.22441H9.2194H9.2144H9.20941H9.20442H9.19943H9.19446H9.18948H9.18451H9.17955H9.17459H9.16964H9.16469H9.15975H9.15481H9.14988H9.14495H9.14003H9.13511H9.1302H9.12529H9.12039H9.11549H9.1106H9.10571H9.10083H9.09596H9.09109H9.08622H9.08136H9.0765H9.07165H9.06681H9.06197H9.05713H9.0523H9.04748H9.04266H9.03784H9.03303H9.02823H9.02343H9.01863H9.01384H9.00906H9.00428H8.9995H8.99474H8.98997H8.98521H8.98046H8.97571H8.97096H8.96623H8.96149H8.95676H8.95204H8.94732H8.94261H8.9379H8.93319H8.92849H8.9238H8.91911H8.91443H8.90975H8.90508H8.90041H8.89574H8.89109H8.88643H8.88178H8.87714H8.8725H8.86787H8.86324H8.85861H8.854H8.84938H8.84477H8.84017H8.83557H8.83098H8.82639H8.8218H8.81722H8.81265H8.80808H8.80352H8.79896H8.7944H8.78986H8.78531H8.78077H8.77624H8.77171H8.76718H8.76266H8.75815H8.75364H8.74913H8.74463H8.74014H8.73565H8.73116H8.72668H8.72221H8.71774H8.71327H8.70881H8.70435H8.6999H8.69546H8.69102H8.68658H8.68215H8.67772H8.6733H8.66888H8.66447H8.66006H8.65566H8.65126H8.64687H8.64248H8.6381H8.63372H8.62935H8.62498H8.62062H8.61626H8.61191H8.60756H8.60321H8.59887H8.59454H8.59021H8.58588H8.58156H8.57725H8.57294H8.56863H8.56433H8.56004H8.55574H8.55146H8.54718H8.5429H8.53863H8.53436H8.5301H8.52584H8.52159H8.51734H8.5131H8.50886H8.50462H8.5004H8.49617H8.49195H8.48774H8.48353H8.47932H8.47512H8.47093H8.46673H8.46255H8.45837H8.45419H8.45002H8.44585H8.44169H8.43753H8.43338H8.42923H8.42508H8.42095H8.41681H8.41268H8.40856H8.40444H8.40032H8.39621H8.3921H8.388H8.38391H8.37981H8.37573H8.37164H8.36757H8.36349H8.35943H8.35536H8.3513H8.34725H8.3432H8.33915H8.33511H8.33108H8.32704H8.32302H8.319H8.31498H8.31097H8.30696H8.30295H8.29896H8.29496H8.29097H8.28699H8.28301H8.27903H8.27506H8.27109H8.26713H8.26317H8.25922H8.25527H8.25133H8.24739H8.24346H8.23953H8.2356H8.23168H8.22777H8.22386H8.21995H8.21605H8.21215H8.20826H8.20437H8.20048H8.1966H8.19273H8.18886H8.18499H8.18113H8.17728H8.17343H8.16958H8.16574H8.1619H8.15806H8.15423H8.15041H8.14659H8.14277H8.13896H8.13516H8.13135H8.12756H8.12376H8.11997H8.11619H8.11241H8.10864H8.10487H8.1011H8.09734H8.09358H8.08983H8.08608H8.08234H8.0786H8.07486H8.07113H8.06741H8.06369H8.05997H8.05626H8.05255H8.04885H8.04515H8.04145H8.03776H8.03408H8.0304H8.02672H8.02305H8.01938H8.01572H8.01206H8.0084H8.00475H8.00111H7.99747L7.9595 17.1C7.52149 17.1001 7.13422 17.1001 6.82196 17.0581C6.4833 17.0125 6.14489 16.9078 5.86854 16.6314C5.59203 16.3549 5.48743 16.0161 5.44187 15.6772C5.39984 15.3646 5.39987 14.9768 5.3999 14.538L5.39991 14.5V10.6V10V9.40003V5.50003L5.3999 5.46208C5.39987 5.02324 5.39984 4.63542 5.44187 4.32281C5.48743 3.98396 5.59203 3.64517 5.86854 3.36866C6.1449 3.09229 6.48335 2.9876 6.82203 2.942C7.13432 2.89996 7.52164 2.89999 7.95973 2.90003ZM10 4.3H7.99778C7.50448 4.3 7.21508 4.3017 7.00891 4.32946C6.92623 4.34059 6.88211 4.35308 6.86105 4.36095C6.85316 4.38206 6.84064 4.42634 6.82948 4.50933C6.8017 4.71594 6.8 5.00598 6.8 5.5V9.2H10C11.8693 9.2 12.568 8.69669 12.8565 8.30602C13.1801 7.86777 13.2 7.31705 13.2 6.75C13.2 6.18295 13.1801 5.63223 12.8565 5.19398C12.568 4.80331 11.8693 4.3 10 4.3ZM6.86893 4.34457C6.86906 4.3449 6.86789 4.34743 6.86506 4.35118C6.86739 4.34613 6.86881 4.34425 6.86893 4.34457ZM6.85132 4.36495C6.84756 4.3678 6.84502 4.36897 6.84469 4.36884C6.84436 4.36871 6.84624 4.36729 6.85132 4.36495ZM10.5 10.8H6.8V14.5C6.8 14.994 6.8017 15.2841 6.82948 15.4907C6.84064 15.5737 6.85316 15.6179 6.86105 15.6391C6.8821 15.6469 6.92621 15.6594 7.00887 15.6705C7.21499 15.6983 7.50433 15.7 7.99756 15.7H10.5C12.6482 15.7 13.4812 15.1804 13.8221 14.77C14.179 14.3405 14.2 13.8118 14.2 13.25C14.2 12.6882 14.179 12.1595 13.8221 11.73C13.4812 11.3196 12.6482 10.8 10.5 10.8ZM6.8447 15.6312C6.84503 15.631 6.84757 15.6322 6.85134 15.6351C6.84626 15.6327 6.84437 15.6313 6.8447 15.6312ZM6.86506 15.6488C6.86789 15.6526 6.86906 15.6551 6.86893 15.6554C6.86881 15.6558 6.86739 15.6539 6.86506 15.6488Z" fill="#09101C"/>
</svg>
